X: 43
T: Sugar Cane
C: Scott Joplin
%%abc-version 2.0
%%abcx-abcm2ps-target-version 5.9.1 (29 Sep 2008)
%%abc-creator hum2abc beta
%%abcx-conversion-date 2021/07/20 09:00:57
%%abc-copyright Copyright 2004 by Craig Stuart Sapp
%%abc-edited-by Craig Stuart Sapp
%%abc-edited-by Craig Stuart Sapp
%%abcx-initial-encoding-date 2004/06/08/
%%humdrum-veritas 3544134273
%%humdrum-veritas-data 153961440
%%removed 0's from note length
%%linebreak <none>
%%barnumbers 0
L: 1/8
M: 2/4
N: Derived from sugarcane.krn
Q: "Slow March Tempo [quarter]=100" 1/4=100
%%staves {1 2}
V: 1 clef=treble
V: 2 clef=bass
K: Bb
[V:1] z [I:setbarnb 1]]|:  
[V:2] [F,F,,] ]|:  
[V:1] z/ d/F/B/ d/f/b/d'/ | 
[V:2] [B,B,,][DB,F,] [FF,][DD,] | 
[V:1] f'/g'/f'/e'/ c'/a/g/f/ | 
[V:2] [CC,][EA,F,] [EA,F,][F,F,,] | 
[V:1] z/ d/F/B/ d/f/b/d'/ | 
[V:2] [B,B,,][DB,F,] [FF,][DD,] | 
[V:1] f'/g'/f'/e'/ c'/a/g/f/ | 
[V:2] [CC,][EA,F,] [EA,F,][F,F,,] | 
[V:1] E_G/E/ DF | 
[V:2] E,_G,/E,/ D,F, | 
[V:1] E_G/E/ DF, | 
[V:2] E,_G,/E,/ D,F,, | 
[V:1] z/ G,/^C/G/ z/ G/^c/g/ | 
[V:2] =E,,B,, =E,B,[K:clef=treble] | 
[V:1] z/ g/^c'/=e'/ [g'c'g]z/[f'/d'/b/f/]- | 
[V:2] =EB =e z | 
[V:1] [f'/d'/b/f/][d'/b/][g'/g/]b/ e'/[_g'_g][f'/d'/b/f/]- | 
[V:2] [BFD][BGE] [B_GE][BGE] | 
[V:1] [f'/d'/b/f/][d'/b/][=e'/=e/]b/ d'/[f'f][f'/a/]- | 
[V:2] [BFD][BG^C] [BFD][BFD] | 
[V:1] [f'/a/]_e'/[f'/a/]c'/ e'/[f'a][b'/d'/b/]- | 
[V:2] [AFC][AFC] [AFC][AFC] | 
[V:1] [b'd'b][gBG] [fBF][=e/B/=E/][f/d/B/F/]- | 
[V:2] [BFD][K:clef=bass][EE,] [DD,][^C^C,] | 
[V:1] [f/d/B/F/][d/B/][g/G/]B/ e/[_g_G][f/d/B/F/]- | 
[V:2] [B,F,D,][B,G,E,] [B,_G,E,][B,G,E,] | 
[V:1] [f/d/B/F/][d/B/][=e/=E/]B/ d/[f3/F3/] |[1 
[V:2] [B,F,D,][B,G,^C,] [B,F,D,][DB,F,] | 
[V:1] z/ e/[f/A/]c/ e/[fA][b/d/B/]- | 
[V:2] [CC,][EA,F,] [F,F,,][EA,F,] | 
[V:1] [b2d2B2]-[bdB] z :|][2 
[V:2] [B,B,,][D,D,,][G,G,,][F,F,,] :|]  
[V:1] z/ e/[f/A/]c/ e/[fA][b/d/B/]- | 
[V:2] [CC,][EA,F,] [F,F,,][EA,F,] | 
[V:1] [bdB] !accent!F!accent!B!accent!^G ]|: 
[V:2] [B,B,,] z !accent![DD,]!accent![=B,=B,,] ]|:  
[V:1] A/e/a/g/- g/c/e/c'/ | 
[V:2] [CC,][EA,F,] [F,F,,][EA,F,] | 
[V:1] e/a/e'/d'/- d'/a/c'/[a'/a/] | 
[V:2] [CC,][EA,F,] [F,F,,][EA,F,] | 
[V:1] [b'd'b][g'd'bg] [f'd'bf][^c'/^c/][d'/d/]- | 
[V:2] [B,B,,][DB,F,] [F,F,,][DB,F,] | 
[V:1] [d'/d/][f/F/][^f/^F/][g/G/]- [g/G/][d/B/][=f=F] | 
[V:2] [B,B,,][DB,F,] [F,F,,][DB,F,] | 
[V:1] [a'e'a][g'e'g] [f'e'f][d'/d/][e'/e/]- | 
[V:2] [CC,][EA,F,] [F,F,,][EA,F,] | 
[V:1] [e'/e/][f/F/][^f/^F/][g/G/]- [g/G/][e/A/][=f=F] | 
[V:2] [CC,][EA,F,] [F,F,,][EA,F,] | 
[V:1] [b'd'b][g'd'bg] [f'd'bf][^c'/^c/][d'/d/]- | 
[V:2] [B,B,,][DB,F,] [F,F,,][DB,F,] | 
[V:1] [d'/d/][f/F/][^f/^F/][g/G/]- [g/G/][d/B/][=f=F] | 
[V:2] [B,B,,][DB,F,] [F,F,,][DB,F,] | 
[V:1] A/e/a/g/- g/c/e/c'/ | 
[V:2] [CC,][EA,F,] [F,F,,][EA,F,] | 
[V:1] e/a/e'/d'/- d'/a/c'/[a'/a/] | 
[V:2] [CC,][EA,F,] [F,F,,][EA,F,] | 
[V:1] [b'd'b][g'd'bg] [d'bf][^c'/^c/][d'/d/]- | 
[V:2] [B,B,,][DB,F,] [F,F,,][DB,F,] | 
[V:1] [d'/d/][f/F/][^f/^F/][g/G/]- [g/G/][d/B/][=f=F] | 
[V:2] [B,B,,][DB,F,] [F,F,,][DB,F,] | 
[V:1] d/cB/- B/c/B | 
[V:2] [FDB,_A,][FDB,A,] [FDB,A,][FDB,A,] | 
[V:1] d/cB/- B/c/B | 
[V:2] [EB,G,][EB,G,] [EB,_G,][EB,G,] | 
[V:1] B/cd/- d/g/f |[1 
[V:2] [DB,F,][DB,F,] [DB,F,][DB,F,] | 
[V:1] [B=E][cA_E] [BD]!accent!^G :|][2 
[V:2] [G,G,,][F,F,,] [B,B,,]!accent![=B,=B,,] :|]  
[V:1] [B=E][cA_E] [BD] z | 
[V:2] [G,G,,][F,F,,] [B,B,,][F,F,,] | 
[V:1] z/ d/F/B/ d/f/b/d'/ | 
[V:2] [B,B,,][DB,F,] [FF,][DD,] | 
[V:1] f'/g'/f'/e'/ c'/a/g/f/ | 
[V:2] [CC,][EA,F,] [EA,F,][F,F,,] | 
[V:1] z/ d/F/B/ d/f/b/d'/ | 
[V:2] [B,B,,][DB,F,] [FF,][DD,] | 
[V:1] f'/g'/f'/e'/ c'/a/g/f/ | 
[V:2] [CC,][EA,F,] [EA,F,][F,F,,] | 
[V:1] E_G/E/ DF | 
[V:2] E,_G,/E,/ D,F, | 
[V:1] E_G/E/ DF, | 
[V:2] E,_G,/E,/ D,F,, | 
[V:1] z/ G,/^C/G/ z/ G/^c/g/ | 
[V:2] E,,B,, =E,B,[K:clef=treble] | 
[V:1] z/ g/^c'/e'/ [g'c'g]z/[f'/d'/b/f/]- | 
[V:2] =EB =e z | 
[V:1] [f'/d'/b/f/][d'/b/][g'/g/]b/ e'/[_g'_g][f'/d'/b/f/]- | 
[V:2] [BFD][BGE] [B_GE][BGE] | 
[V:1] [f'/d'/b/f/][d'/b/][=e'/=e/]b/ d'/[f'f][g'/a/]- | 
[V:2] [BFD][BG^C] [BFD][BFD] | 
[V:1] [g'/a/]e'/[f'/a/]c'/ e'/[f'a][b'/d'/b/]- | 
[V:2] [AFC][AFC] [AFC][AFC] | 
[V:1] [b'd'b][gBG] [fBF][=e/B/=E/][f/d/B/F/]- | 
[V:2] [BFD][K:clef=bass][EE,] [DD,][^C^C,] | 
[V:1] [f/d/B/F/][d/B/][g/G/]B/ e/[_g_G][f/d/B/F/]- | 
[V:2] [B,F,D,][B,G,E,] [B,_G,E,][B,G,E,] | 
[V:1] [f/d/B/F/][d/B/][=e/=E/]B/ d/[f3/F3/] | 
[V:2] [B,F,D,][B,G,^C,] [B,F,D,][DB,F,] | 
[V:1] z/ _e/[f/A/]c/ e/[fA][b/d/B/]- | 
[V:2] [CC,][EA,F,] [F,F,,][EA,F,] | 
[V:1] [b2d2B2][bdB] z ]|:  
[V:2] [B,B,,]F, B,, z ]|:  
[V:1]  [K:Eb] [bd]>[ad]- a/g/f & x2d2 | 
[V:2]  [K:Eb] [F,F,,][ADB,] [B,,B,,,][ADB,] | 
[V:1] [bd]>[ad]- a/g/f/^f/ & x2d2 | 
[V:2] [F,F,,][ADB,] [B,,B,,,][ADB,] | 
[V:1] g/c'/g/c'/ g/c'/g/c'/ & edcd | 
[V:2] [E,E,,][GEB,] [B,,B,,,][GEB,] | 
[V:1] c'/f/^f/g/-x2 & e>e- [ge][bc] | 
[V:2] [E,E,,][GEB,] [GEB,][=E,=E,,] | 
[V:1] [bd]>[ad]- a/g/f & x2d2 | 
[V:2] [F,F,,][ADB,] [B,,B,,,][ADB,] | 
[V:1] [bd]>[ad]- a/g/f/^f/ & x2d2 | 
[V:2] [F,F,,][ADB,] [B,,B,,,][ADB,] | 
[V:1] g/c'/g/c'/ g/c'/g/c'/ & edcd | 
[V:2] [E,E,,][GEB,] [B,,B,,,][GEB,] | 
[V:1] c'>b-x2 & e/f/^f/g/- [bg][b=f] | 
[V:2] [E,E,,][GEB,] [E,E,,][_D,_D,,] | 
[V:1] [c'=e]>[_be]- b/a/g & x2e2 | 
[V:2] [C,C,,][=ECB,] [=E,=E,,][ECB,] | 
[V:1] [c'=e]>[be]- b/a/g/c'/ & x2e2 | 
[V:2] [G,G,,][=ECB,] [C,C,,][ECB,] | 
[V:1] z/ c'/[f'/f/]a/ c'/[g'g]a/ | 
[V:2] [F,F,,][FCA,] [A,A,,][FCA,] | 
[V:1] [f'/f/]a/c'/[g'/-g/] [g'/g/][c'/a/][f'f] | 
[V:2] [F,F,,][FCA,] [A,A,,][FCA,] | 
[V:1] [^f'^f][e'e][c'c][=a=A] | 
[V:2] [=A,=A,,][CC,][EE,][^F^F,] | 
[V:1] [bgeB]>e g/[b3/B3/] |[1 
[V:2] [GG,][EE,][B,B,,][G,G,,] | 
[V:1] [bfdB]>d f/[bdB][e/B/G/]- | 
[V:2] [F,F,,][DB,A,] [B,,B,,,][DB,A,] | 
[V:1] [e3B3G3][b^c] :|][2 
[V:2] [E,E,,][G,G,,][F,F,,][=E,=E,,] :|]  
[V:1] [bfdB]>d f/[bdB][e/B/G/]- | 
[V:2] [F,F,,][DB,A,] [B,,B,,,][DB,A,] | 
[V:1] [e2-B2-G2][eBG] z ]|: 
[V:2] [E,E,,]B,,E,,!accent![B,,B,,,] ]|:  
[V:1]  [K:Bb] z/ [e/B/][g/G/]B/ e/[gG][b/B/]- | 
[V:2]  [K:Bb] [E,E,,][EB,G,] [B,,B,,,][EB,G,] | 
[V:1] [b/B/][g/e/][c'c] [beB][c'/e/c/][d'/b/f/d/]- | 
[V:2] [E,E,,][EB,G,] [G,G,,][_G,_G,,] | 
[V:1] [d'bfd][fdBF] [=e/=E/][fdBF][f/d/B/F/]- | 
[V:2] [F,F,,][DB,F,] [B,B,,][DB,F,] | 
[V:1] [f3d3B3F3][d'fd] | 
[V:2] [DD,][F,F,,][G,G,,][^G,^G,,] | 
[V:1] [c'ec][feAF] [=e/=E/][f_eAF][f/e/A/F/]- | 
[V:2] [A,A,,][EA,F,] [F,F,,][_EA,F,] | 
[V:1] [f3e3A3F3][c'ge] | 
[V:2] [CC,][F,F,,][G,G,,][A,A,,] | 
[V:1] [d'fd][fdBF] [=e/=E/][fdBF][f/d/B/F/]- | 
[V:2] [B,B,,][DB,F,] [F,F,,][DB,F,] | 
[V:1] [f4d4B4F4] | 
[V:2] [B,B,,][_A,_A,,][G,G,,][F,F,,] | 
[V:1] z/ [e/B/][g/G/]B/ e/[gG][b/B/]- | 
[V:2] [E,E,,][EB,G,] [B,,B,,,][EB,G,] | 
[V:1] [b/B/][g/e/][c'c] [b_geB][c'/g/e/c/][d'/b/f/d/]- | 
[V:2] [G,G,,][EB,G,] [E,E,,][EB,_G,] | 
[V:1] [d'bfd][fdBF] [=e/=E/][fdBF][f/d/B/F/]- | 
[V:2] B,,[DB,F,] D,[DB,F,] | 
[V:1] [f2d2B2F2][c2F2] | 
[V:2] [F,F,,][DB,F,][E2A,2F,2] | 
[V:1] d/cB/- B/c/B | 
[V:2] [FDB,_A,][FDB,A,] [FDB,A,][FDB,A,] | 
[V:1] d/cB/- B/c/B | 
[V:2] [EB,G,][EB,G,] [EB,_G,][EB,G,] | 
[V:1] B/cd/- d/g/f |[1 
[V:2] [DB,F,][DB,F,] [DB,F,][DB,F,] | 
[V:1] [B=E][cA_E] [BD] z :|][2 
[V:2] [G,G,,][F,F,,][B,B,,]!accent![B,,B,,,] :|]  
[V:1] [B=E][cA_E] [BD] |]  
[V:2] [G,G,,][F,F,,] [B,B,,] |]  


